X:317
T:Miss Brown’s Strathspey. RH.317
R:strathspey
S:Rev.R.Harrison’s MS,c1815,Cumbria
O:England
A:Temple Sowerby,Cumbria
Z:vmp.Simon Wilson. Review PJH, 2008.
M:C|
L:1/8
Q:1/2=60
K:G
d>c|BGGc B/c/d/B/ Gd|g2a/g/f/e/ faa g/f/|\
g>de>g d>gB>d|dG F/G/A/F/ G2:|!
e|d>gg>e f>ef>d|g>ga>g a>bc’>a|\
b.g.g.d. c.c.ag|f2g/f/e/d/ d.g.g.e.|!
d.g.g.e. f.e.f.d.|g.g.b.g. a>bc’>a|\
bgg>d e/f/g/e/ ce|dG F/G/A/F/ G2|]

